X: 1
T:Three Handed Reel
T:Fanny Frail
C:Trad.
A:Bromsberrow Heath, Gloucestershire
S:Bordering on the Absurd
N:
M:4/4
L:1/8
K:D
L:1/8
P:A
|:\
FA|B2 AF DF AB|A2 G2 G2 EF|GF ED CD EF|G2 F2 F2 \
FA|B2 AF DFAB|A2 G2 G2 EF|GF ED CD EF|E2 D2 D2:|\
P:B
|:FA|B2 AF DF Ad|c2 B2 B2 ed|cdef  gece|edcB  A2 \
FA|B2 AF DF Ad|c2 B2 B2 ed|cdef  gece|e2 d2 d2:|
